X: 305
T:Veni sancte spiritus
N: Derived from Jos2618-Veni_sancte_spiritus.krn
C: Josquin des Prez
%%abc-version 2.0
%%abcx-abcm2ps-target-version 5.9.1 (29 Sep 2008)
%%abc-creator hum2abc beta
%%abcx-conversion-date 2019/02/12 16:15:54
%%abc-edited-by Jesse Rodin
%%abc-edited-by Will Watson 12/09/2011
%%abcx-initial-encoding-date 2011/09/12/
%%humdrum-veritas 1696125893
%%humdrum-veritas-data 1282885958
%%linebreak <none>
%%barnumbers 0
L: 1/4
M: 3/1
Q: 1/2=120
V: 1 clef=treble
V: 2 clef=treble-8
V: 3 clef=treble-8
V: 4 clef=treble-8
V: 5 clef=treble-8
V: 6 clef=bass
K: F
[V:1] z12 | 
[V:2] z12 | 
[V:3] F8G4 | 
[V:4] z12 | 
[V:5] z12 | 
[V:6] z12 | 
[V:1] z12 | 
[V:2] z12 | 
[V:3] A8B3A | 
[V:4] z12 | 
[V:5] z12 | 
[V:6] F,8G,4 | 
[V:1] C8D4 | 
[V:2] z12 | 
[V:3] GFA3GG4F2 | 
[V:4] z12 | 
[V:5] z12 | 
[V:6] E,2F,4E,2D,4 | 
[V:1] E8F3E | 
[V:2] z4z4d3e | 
[V:3] G8z4 | 
[V:4] c8d4 | 
[V:5] z12 | 
[V:6] C,8z4 | 
[V:1] DCE3DD4C2 | 
[V:2] fga3gg4^f2 | 
[V:3] z12 | 
[V:4] B2c4B2A4 | 
[V:5] z12 | 
[V:6] z12 | 
[V:1] D8z4 | 
[V:2] g8g4 | 
[V:3] B8c4 | 
[V:4] G8z4 | 
[V:5] G8E4 | 
[V:6] z12 | 
[V:1] z12 | 
[V:2] f6edc3B | 
[V:3] d8e4 | 
[V:4] z12 | 
[V:5] D3EF2G4A2- | 
[V:6] B,,8C,4 | 
[V:1] F8G4 | 
[V:2] A2d3cBAG4 | 
[V:3] d3cBAB4AG | 
[V:4] z12 | 
[V:5] A2BABcd3^c^c=B | 
[V:6] D,8E,4 | 
[V:1] A8B4 | 
[V:2] z2F4f3eed | 
[V:3] F2f3ed4cB | 
[V:4] F8G4 | 
[V:5] d8z4 | 
[V:6] D,8G,4 | 
[V:1] A3GFEF4ED | 
[V:2] f8d4 | 
[V:3] c2c2d8 | 
[V:4] A8B4 | 
[V:5] z12 | 
[V:6] F,3E,D,C,D,4C,B,, | 
[V:1] C2c3BA4GF | 
[V:2] z2c4c2B3A | 
[V:3] z12 | 
[V:4] A8d4 | 
[V:5] c3BAGF4ED | 
[V:6] F,8G,4 | 
[V:1] G2G2A8 | 
[V:2] G4F4z2f2- | 
[V:3] z4F8 | 
[V:4] c3BAGA4GF | 
[V:5] E2C2z2F4ED | 
[V:6] G,4D,8 | 
[V:1] z12 | 
[V:2] feedf8 | 
[V:3] G4A8 | 
[V:4] c8d4 | 
[V:5] C4F4D4 | 
[V:6] z4F,8 | 
[V:1] z4C8 | 
[V:2] z4f8 | 
[V:3] B4A8 | 
[V:4] d4A8 | 
[V:5] z12 | 
[V:6] G,4F,8 | 
[V:1] D4E8 | 
[V:2] f4e2c3BG2 | 
[V:3] F4G8 | 
[V:4] z4c8 | 
[V:5] z4z4C4 | 
[V:6] D,4C,4E,4 | 
[V:1] F4E8 | 
[V:2] A3Bcdefgag2- | 
[V:3] z12 | 
[V:4] d4c8 | 
[V:5] F2D2E2C2C4 | 
[V:6] D,4z4z4 | 
[V:1] C4D8 | 
[V:2] g2^f2g4z2d2 | 
[V:3] z12 | 
[V:4] A4G4B4 | 
[V:5] z4z4G4 | 
[V:6] z12 | 
[V:1] z12 | 
[V:2] f3e/d/c2d4^c2 | 
[V:3] F8G4 | 
[V:4] A4z4z4 | 
[V:5] D3EF2D2E4 | 
[V:6] z12 | 
[V:1] z12 | 
[V:2] d12 | 
[V:3] A8B3A | 
[V:4] z12 | 
[V:5] D8z4 | 
[V:6] F,8G,4 | 
[V:1] C8D4 | 
[V:2] z12 | 
[V:3] GFA3GG4^F2 | 
[V:4] z12 | 
[V:5] z12 | 
[V:6] E,2F,4E,2D,4 | 
[V:1] E8F3E | 
[V:2] z4z4d3e | 
[V:3] G8z4 | 
[V:4] c8d4 | 
[V:5] z12 | 
[V:6] C,8z4 | 
[V:1] DCE3DD4C2 | 
[V:2] fga3gg4^f2 | 
[V:3] z12 | 
[V:4] B2c4B2A4 | 
[V:5] z12 | 
[V:6] z12 | 
[V:1] D8z4 | 
[V:2] g8g4 | 
[V:3] B8c4 | 
[V:4] G8z4 | 
[V:5] G8E4 | 
[V:6] z12 | 
[V:1] z12 | 
[V:2] f6edc3B | 
[V:3] d8e4 | 
[V:4] z12 | 
[V:5] D3EF2G4A2- | 
[V:6] B,,8C,4 | 
[V:1] F8G4 | 
[V:2] A2d3cBAG4 | 
[V:3] d3cBAB4AG | 
[V:4] z12 | 
[V:5] A2BABcd3^c^c=B | 
[V:6] D,8E,4 | 
[V:1] A8B4 | 
[V:2] z2F4f3eed | 
[V:3] F2f3ed4cB | 
[V:4] F8G4 | 
[V:5] d8z4 | 
[V:6] D,8G,4 | 
[V:1] A3GFEF4ED | 
[V:2] f8d4 | 
[V:3] c2c2d8 | 
[V:4] A8B4 | 
[V:5] z12 | 
[V:6] F,3E,D,C,D,4C,B,, | 
[V:1] C2c3BA4GF | 
[V:2] z2c4c2B3A | 
[V:3] z12 | 
[V:4] A8d4 | 
[V:5] c3BAGF4ED | 
[V:6] F,8G,4 | 
[V:1] G2G2A8 | 
[V:2] G4F4z2f2- | 
[V:3] z4F8 | 
[V:4] c3BAGA4GF | 
[V:5] E2C2z2F4ED | 
[V:6] G,4D,8 | 
[V:1] z12 | 
[V:2] feedf8 | 
[V:3] G4A8 | 
[V:4] c8d4 | 
[V:5] C4F4D4 | 
[V:6] z4F,8 | 
[V:1] z4C8 | 
[V:2] z4f8 | 
[V:3] B4A8 | 
[V:4] d4A8 | 
[V:5] z12 | 
[V:6] G,4F,8 | 
[V:1] D4E8 | 
[V:2] f4e2c3BG2 | 
[V:3] F4G8 | 
[V:4] z4c8 | 
[V:5] z4z4C4 | 
[V:6] D,4C,4E,4 | 
[V:1] F4E8 | 
[V:2] A3Bcdefgag2- | 
[V:3] z12 | 
[V:4] d4c8 | 
[V:5] F2D2E2C2C4 | 
[V:6] D,4z4z4 | 
[V:1] C4D8 | 
[V:2] g2^f2g4z2d2 | 
[V:3] z12 | 
[V:4] A4G4B4 | 
[V:5] z4z4G4 | 
[V:6] z12 | 
[V:1] z12 | 
[V:2] f6edd4- | 
[V:3] d8f4 | 
[V:4] A4z4z4 | 
[V:5] F3GA2B2A4 | 
[V:6] D,8D,4 | 
[V:1] z12 | 
[V:2] d2e3dd4^c2 | 
[V:3] g8g4 | 
[V:4] z12 | 
[V:5] G8G4 | 
[V:6] G,4C,2G,4E,2 | 
[V:1] A8c4 | 
[V:2] d2a4gfe4 | 
[V:3] f6ede4 | 
[V:4] A8A4 | 
[V:5] A4z4A4 | 
[V:6] D,8z4 | 
[V:1] d8d4 | 
[V:2] d4z4d3e | 
[V:3] f4g8 | 
[V:4] d4G2d4B2 | 
[V:5] D4G8 | 
[V:6] z12 | 
[V:1] c6BAB4 | 
[V:2] f2e4f2d4 | 
[V:3] z12 | 
[V:4] A8z4 | 
[V:5] A6GFG4 | 
[V:6] z12 | 
[V:1] c4d8 | 
[V:2] c2A3GA2F3G | 
[V:3] f4d2f4ed | 
[V:4] z12 | 
[V:5] A4D8 | 
[V:6] z4F,4D,2F,2- | 
[V:1] z12 | 
[V:2] ABcdefg3ff2- | 
[V:3] c6B3AGF | 
[V:4] z12 | 
[V:5] z2A4G3AB2 | 
[V:6] F,2E,D,C,2_E,4D,2 | 
[V:1] c4A2c4BA | 
[V:2] f2e2f4z4 | 
[V:3] G4F4z4 | 
[V:4] z4c4A2c2- | 
[V:5] c2G2A2F3EF2 | 
[V:6] C,4F,4z4 | 
[V:1] G6F3EDC | 
[V:2] z4z2d3ef2 | 
[V:3] z4z4z2c2- | 
[V:4] c2BAG2B4A2 | 
[V:5] C4z4z4 | 
[V:6] z12 | 
[V:1] D4C4z4 | 
[V:2] g6fed2g2- | 
[V:3] c2B2c4d4 | 
[V:4] G4c4z4 | 
[V:5] z12 | 
[V:6] G,4E,2C,2G,4 | 
[V:1] z4z4z2G2- | 
[V:2] g2f2d2f3ec2 | 
[V:3] c4B2c3BAG | 
[V:4] z12 | 
[V:5] z12 | 
[V:6] E,2F,2G,2F,3G,E,2 | 
[V:1] G2F2G4A4 | 
[V:2] d4z4z2d2- | 
[V:3] A4G2G4^F2 | 
[V:4] d4B2G2d4 | 
[V:5] z12 | 
[V:6] D,4_E,4D,4 | 
[V:1] G4F2G3FED | 
[V:2] d2e2f2e3dd2- | 
[V:3] G4z4z4 | 
[V:4] B2c2d2c3dB2 | 
[V:5] z12 | 
[V:6] G,,4z4z4 | 
[V:1] E4D2D4^C2 | 
[V:2] d2c2d4e4 | 
[V:3] z12 | 
[V:4] A4B4A4 | 
[V:5] z12 | 
[V:6] z12 | 
[V:1] D4z4z4 | 
[V:2] d4z4d4 | 
[V:3] d8f4 | 
[V:4] D4z4z4 | 
[V:5] A8A4 | 
[V:6] D,8D,4 | 
[V:1] z12 | 
[V:2] d2e3dd4^c2 | 
[V:3] g8g4 | 
[V:4] z12 | 
[V:5] G6G2G2G2 | 
[V:6] G,4C,2G,4E,2 | 
[V:1] A8c4 | 
[V:2] d2a4gfe4 | 
[V:3] f6ede4 | 
[V:4] A8A4 | 
[V:5] A4z4A4 | 
[V:6] D,8z4 | 
[V:1] d8d4 | 
[V:2] d4z4d3e | 
[V:3] f4g8 | 
[V:4] d4G2d4B2 | 
[V:5] D4G8 | 
[V:6] z12 | 
[V:1] c6BAB4 | 
[V:2] f2e4f2d4 | 
[V:3] z12 | 
[V:4] A8z4 | 
[V:5] A6GFG4 | 
[V:6] z12 | 
[V:1] c4d8 | 
[V:2] c2A3GA2F3G | 
[V:3] f4d2f4ed | 
[V:4] z12 | 
[V:5] A4D8 | 
[V:6] z4F,4D,2F,2- | 
[V:1] z12 | 
[V:2] ABcdefg3ff2- | 
[V:3] c6B3AGF | 
[V:4] z12 | 
[V:5] z2A4G3AB2 | 
[V:6] F,2E,D,C,2_E,4D,2 | 
[V:1] c4A2c4BA | 
[V:2] f2e2f4z4 | 
[V:3] G4F4z4 | 
[V:4] z4c4A2c2- | 
[V:5] c2G2A2F3EF2 | 
[V:6] C,4F,4z4 | 
[V:1] G6F3ED2 | 
[V:2] z4z2d3ef2 | 
[V:3] z4z4z2c2- | 
[V:4] c2BAG2B4A2 | 
[V:5] C4z4z4 | 
[V:6] z12 | 
[V:1] D4C4z4 | 
[V:2] g6fed2g2- | 
[V:3] c2B2c4d4 | 
[V:4] G4c4z4 | 
[V:5] z12 | 
[V:6] G,4E,2C,2G,4 | 
[V:1] z4z4z2G2- | 
[V:2] gfe2d2e3dc2 | 
[V:3] c4B2c3BAG | 
[V:4] z12 | 
[V:5] z12 | 
[V:6] E,2C,2z2C,3D,_E,2 | 
[V:1] G2F2G4A4 | 
[V:2] d4GABcdef2 | 
[V:3] A4G2G4F2 | 
[V:4] d4B2G2d4 | 
[V:5] z12 | 
[V:6] D,4_E,4D,4 | 
[V:1] G4F2G3FED | 
[V:2] e2d4G4G2 | 
[V:3] GABcd2c4B2 | 
[V:4] B2G2z2G3AB2 | 
[V:5] G3F/E/D2E2D4 | 
[V:6] G,,3A,,B,,G,,C,2G,,4 | 
[V:1] E4D2D4C2 | 
[V:2] E3FGAB2c2A2 | 
[V:3] c4z4z2A2 | 
[V:4] A4B4A4 | 
[V:5] z2C2D3EF2E2 | 
[V:6] C,4z2G,,2A,,4 | 
[V:1] DEFGA2G4^F2 | 
[V:2] d8z2d2- | 
[V:3] B2d3cB2A4 | 
[V:4] D3EFDG2D4 | 
[V:5] G2D4D2F3E | 
[V:6] G,,4z2G,,2D,3C, | 
[V:1] G12- | 
[V:2] d2c2d2G3ABc | 
[V:3] G12- | 
[V:4] G4z2D2E4 | 
[V:5] D2E2D4C4 | 
[V:6] B,,G,,C,4B,,2C,4 | 
[V:1] G12 ||  
[V:2] d12 ||  
[V:3] G12 ||  
[V:4] D12 ||  
[V:5] G12 ||  
[V:6] G,,12 ||  
[V:1] [M:2/1]z8 | 
[V:2] [M:2/1]z8 | 
[V:3] [M:2/1]z8 | 
[V:4] [M:2/1]z8 | 
[V:5] [M:2/1]G4B4 | 
[V:6] [M:2/1]G,6G,2 | 
[V:1] z8 | 
[V:2] z8 | 
[V:3] z8 | 
[V:4] z8 | 
[V:5] A3Bc2d2- | 
[V:6] F,4F,4 | 
[V:1] z8 | 
[V:2] z8 | 
[V:3] g6g2 | 
[V:4] z8 | 
[V:5] dcBAG4 | 
[V:6] G,4E,4 | 
[V:1] z8 | 
[V:2] z8 | 
[V:3] f4f4 | 
[V:4] d6d2 | 
[V:5] A8 | 
[V:6] D,8 | 
[V:1] z8 | 
[V:2] g6g2 | 
[V:3] g4e4 | 
[V:4] c4c4 | 
[V:5] z8 | 
[V:6] z8 | 
[V:1] d6d2 | 
[V:2] f4g4 | 
[V:3] d8 | 
[V:4] d4B4 | 
[V:5] z8 | 
[V:6] z8 | 
[V:1] c4c4 | 
[V:2] a3gf2e2 | 
[V:3] z8 | 
[V:4] A8 | 
[V:5] z8 | 
[V:6] z8 | 
[V:1] d4B4 | 
[V:2] d4z2d2 | 
[V:3] B4G4 | 
[V:4] z8 | 
[V:5] G4G4 | 
[V:6] G,4G,4 | 
[V:1] A8 | 
[V:2] f6ed | 
[V:3] F3GABc2- | 
[V:4] z8 | 
[V:5] A4D2A2- | 
[V:6] D,4F,4- | 
[V:1] z8 | 
[V:2] c2d2e4 | 
[V:3] cBB4A2 | 
[V:4] z8 | 
[V:5] AGF4E2 | 
[V:6] F,2E,D,C,4 | 
[V:1] F4D4 | 
[V:2] d8 | 
[V:3] B8 | 
[V:4] d4d4 | 
[V:5] F8 | 
[V:6] B,,8 | 
[V:1] C3DEFG2- | 
[V:2] z8 | 
[V:3] z8 | 
[V:4] A4c4- | 
[V:5] F4C4- | 
[V:6] z8 | 
[V:1] GFF4E2 | 
[V:2] z8 | 
[V:3] c4c4 | 
[V:4] c2BAG4 | 
[V:5] C4C4 | 
[V:6] z8 | 
[V:1] F8 | 
[V:2] d3efga2- | 
[V:3] d6c2 | 
[V:4] F8 | 
[V:5] F8 | 
[V:6] B,,6C,2 | 
[V:1] z8 | 
[V:2] agg4^f2 | 
[V:3] B2AGA4 | 
[V:4] z8 | 
[V:5] z8 | 
[V:6] D,2_E,2D,2D,2 | 
[V:1] G4G4 | 
[V:2] g4d2e2 | 
[V:3] G8 | 
[V:4] z8 | 
[V:5] z8 | 
[V:6] G,8 | 
[V:1] A6G2 | 
[V:2] f6e2- | 
[V:3] z8 | 
[V:4] F6G2 | 
[V:5] z8 | 
[V:6] z8 | 
[V:1] F2EDE4 | 
[V:2] edd4^c2 | 
[V:3] z8 | 
[V:4] A2B2A2A2 | 
[V:5] z8 | 
[V:6] z8 | 
[V:1] D8 | 
[V:2] d8 | 
[V:3] z8 | 
[V:4] d8 | 
[V:5] G4B4 | 
[V:6] G,6G,2 | 
[V:1] z8 | 
[V:2] z8 | 
[V:3] z8 | 
[V:4] z8 | 
[V:5] A3Bc2d2- | 
[V:6] F,4F,4 | 
[V:1] z8 | 
[V:2] z8 | 
[V:3] g6g2 | 
[V:4] z8 | 
[V:5] dcBAG4 | 
[V:6] G,4E,4 | 
[V:1] z8 | 
[V:2] z8 | 
[V:3] f4f4 | 
[V:4] d6d2 | 
[V:5] A8 | 
[V:6] D,8 | 
[V:1] z8 | 
[V:2] g6g2 | 
[V:3] g4e4 | 
[V:4] c4c4 | 
[V:5] z8 | 
[V:6] z8 | 
[V:1] d6d2 | 
[V:2] f4g4 | 
[V:3] d8 | 
[V:4] d4B4 | 
[V:5] z8 | 
[V:6] z8 | 
[V:1] c4c4 | 
[V:2] a3gf2e2 | 
[V:3] z8 | 
[V:4] A8 | 
[V:5] z8 | 
[V:6] z8 | 
[V:1] d4B4 | 
[V:2] d4z2d2 | 
[V:3] B4G4 | 
[V:4] z8 | 
[V:5] G4G4 | 
[V:6] G,4G,4 | 
[V:1] A8 | 
[V:2] f6ed | 
[V:3] F3GABc2- | 
[V:4] z8 | 
[V:5] A4D2A2- | 
[V:6] D,4F,4- | 
[V:1] z8 | 
[V:2] c2d2e4 | 
[V:3] cBB4A2 | 
[V:4] z8 | 
[V:5] AGF4E2 | 
[V:6] F,2E,D,C,4 | 
[V:1] F4D4 | 
[V:2] d8 | 
[V:3] B8 | 
[V:4] d4d4 | 
[V:5] F8- | 
[V:6] B,,8 | 
[V:1] C3DEFG2- | 
[V:2] z8 | 
[V:3] z8 | 
[V:4] A4c4- | 
[V:5] F4C4- | 
[V:6] z8 | 
[V:1] GFF4E2 | 
[V:2] z8 | 
[V:3] c4c4 | 
[V:4] c2BAG4 | 
[V:5] C8 | 
[V:6] z8 | 
[V:1] F8 | 
[V:2] d3efga2- | 
[V:3] d6c2 | 
[V:4] F8 | 
[V:5] F8 | 
[V:6] B,,6C,2 | 
[V:1] z8 | 
[V:2] agg4^f2 | 
[V:3] B2AGA2A2 | 
[V:4] z8 | 
[V:5] z8 | 
[V:6] D,2_E,2D,2D,2 | 
[V:1] G4G4 | 
[V:2] g4d2e2 | 
[V:3] G8 | 
[V:4] z8 | 
[V:5] z8 | 
[V:6] G,,8 | 
[V:1] A6G2 | 
[V:2] f6e2- | 
[V:3] z8 | 
[V:4] F6G2 | 
[V:5] z8 | 
[V:6] z8 | 
[V:1] F2EDE2E2 | 
[V:2] edd4^c2 | 
[V:3] z8 | 
[V:4] A2B2A2A2 | 
[V:5] z8 | 
[V:6] z8 | 
[V:1] D12 | 
[V:2] [M:3/1]d12 | 
[V:3] z12 | 
[V:4] D12 | 
[V:5] [M:3/1]A8A4 | 
[V:6] [M:3/1]F,8F,4 | 
[V:1] z12 | 
[V:2] z12 | 
[V:3] z12 | 
[V:4] z12 | 
[V:5] G8G4 | 
[V:6] _E,8E,4 | 
[V:1] z12 | 
[V:2] c8B4 | 
[V:3] [M:3/1]f8f4 | 
[V:4] z12 | 
[V:5] A6G2F4 | 
[V:6] F,6_E,2D,4 | 
[V:1] z12 | 
[V:2] c8c4 | 
[V:3] _e8_e4 | 
[V:4] [M:3/1]c8c4 | 
[V:5] G12 | 
[V:6] C,12 | 
[V:1] z12 | 
[V:2] d8d4 | 
[V:3] f6_e2d4 | 
[V:4] B8B4 | 
[V:5] z12 | 
[V:6] z12 | 
[V:1] [M:3/1]c8c4 | 
[V:2] _e6d2_e2f2 | 
[V:3] c8z4 | 
[V:4] c6B2A4 | 
[V:5] z12 | 
[V:6] z12 | 
[V:1] B8B4 | 
[V:2] g12 | 
[V:3] d8G4 | 
[V:4] G12 | 
[V:5] z12 | 
[V:6] G,8G,4 | 
[V:1] c6B2A4 | 
[V:2] z12 | 
[V:3] c8d4 | 
[V:4] z12 | 
[V:5] z12 | 
[V:6] A,6G,2F,4 | 
[V:1] G8z4 | 
[V:2] z12 | 
[V:3] G4c6B2 | 
[V:4] z12 | 
[V:5] G8G4 | 
[V:6] G,4E,8 | 
[V:1] A8D4 | 
[V:2] z12 | 
[V:3] A2G2F6E2 | 
[V:4] d8d4 | 
[V:5] A8B4 | 
[V:6] F,4D,8 | 
[V:1] G8A4 | 
[V:2] c6d2e4 | 
[V:3] G8z4 | 
[V:4] e6d2c4 | 
[V:5] c6B2A4 | 
[V:6] C,8z4 | 
[V:1] D4G6F2 | 
[V:2] f4d8 | 
[V:3] z12 | 
[V:4] d4B8 | 
[V:5] F4G8 | 
[V:6] z12 | 
[V:1] E2D2C6B,2 | 
[V:2] g6^fe^f4 | 
[V:3] z12 | 
[V:4] c4A8 | 
[V:5] z12 | 
[V:6] z12 | 
[V:1] D8z4 | 
[V:2] g12 | 
[V:3] B8c4 | 
[V:4] G8z4 | 
[V:5] z12 | 
[V:6] G,8E,4 | 
[V:1] z12 | 
[V:2] z12 | 
[V:3] d8c4 | 
[V:4] z12 | 
[V:5] A6B2c4 | 
[V:6] D,4F,6E,2 | 
[V:1] z12 | 
[V:2] z12 | 
[V:3] f6ede4 | 
[V:4] z12 | 
[V:5] d8c4 | 
[V:6] D,6B,,2C,4 | 
[V:1] F8G4 | 
[V:2] z12 | 
[V:3] d8z4 | 
[V:4] d8B4 | 
[V:5] A8G4 | 
[V:6] D,8z4 | 
[V:1] A8G4 | 
[V:2] z12 | 
[V:3] z12 | 
[V:4] A4c6B2 | 
[V:5] F8E4 | 
[V:6] z12 | 
[V:1] c6BAB4 | 
[V:2] z12 | 
[V:3] z12 | 
[V:4] A6F2G4 | 
[V:5] F8z4 | 
[V:6] z12 | 
[V:1] A8z4 | 
[V:2] z12 | 
[V:3] z12 | 
[V:4] A8z4 | 
[V:5] D8D4 | 
[V:6] F,8F,4 | 
[V:1] z12 | 
[V:2] z12 | 
[V:3] z12 | 
[V:4] z12 | 
[V:5] G8G4 | 
[V:6] _E,8E,4 | 
[V:1] z12 | 
[V:2] c8B4 | 
[V:3] f8f4 | 
[V:4] z12 | 
[V:5] A6G2F4 | 
[V:6] F,6_E,2D,4 | 
[V:1] z12 | 
[V:2] c8c4 | 
[V:3] _e8_e4 | 
[V:4] c8c4 | 
[V:5] G12 | 
[V:6] C,12 | 
[V:1] z12 | 
[V:2] d8d4 | 
[V:3] f6_e2d4 | 
[V:4] B8B4 | 
[V:5] z12 | 
[V:6] z12 | 
[V:1] c8c4 | 
[V:2] _e6d2_e2f2 | 
[V:3] c8z4 | 
[V:4] c6B2A4 | 
[V:5] z12 | 
[V:6] z12 | 
[V:1] B8B4 | 
[V:2] g12 | 
[V:3] d8G4 | 
[V:4] G12 | 
[V:5] z12 | 
[V:6] G,8G,4 | 
[V:1] c6B2A4 | 
[V:2] z12 | 
[V:3] c8d4 | 
[V:4] z12 | 
[V:5] z12 | 
[V:6] A,6G,2F,4 | 
[V:1] G8z4 | 
[V:2] z12 | 
[V:3] G4c6B2 | 
[V:4] z12 | 
[V:5] G8G4 | 
[V:6] G,4E,8 | 
[V:1] A8D4 | 
[V:2] z12 | 
[V:3] A2G2F6E2 | 
[V:4] d8d4 | 
[V:5] A8B4 | 
[V:6] F,4D,8 | 
[V:1] G8A4 | 
[V:2] c6d2e4 | 
[V:3] G8z4 | 
[V:4] e6d2c4 | 
[V:5] c6B2A4 | 
[V:6] C,8z4 | 
[V:1] D4G6F2 | 
[V:2] f4d8 | 
[V:3] z12 | 
[V:4] d4B8 | 
[V:5] F4G8 | 
[V:6] z12 | 
[V:1] E2D2C6B,2 | 
[V:2] g6^fe^f4 | 
[V:3] z12 | 
[V:4] c4A8 | 
[V:5] z12 | 
[V:6] z12 | 
[V:1] D8z4 | 
[V:2] g12 | 
[V:3] B8c4 | 
[V:4] G8z4 | 
[V:5] z12 | 
[V:6] G,8E,4 | 
[V:1] z12 | 
[V:2] z12 | 
[V:3] d8c4 | 
[V:4] z12 | 
[V:5] A6B2c4 | 
[V:6] D,4F,6E,2 | 
[V:1] z12 | 
[V:2] z12 | 
[V:3] f6ede4 | 
[V:4] z12 | 
[V:5] d8c4 | 
[V:6] D,6B,,2C,4 | 
[V:1] F8G4 | 
[V:2] z12 | 
[V:3] d8z4 | 
[V:4] d8B4 | 
[V:5] A8G4 | 
[V:6] D,8z4 | 
[V:1] A8G4 | 
[V:2] z12 | 
[V:3] z12 | 
[V:4] A4c6B2 | 
[V:5] F8E4 | 
[V:6] z12 | 
[V:1] c6BAB4 | 
[V:2] z12 | 
[V:3] z12 | 
[V:4] A6F2G4 | 
[V:5] F8z4 | 
[V:6] z12 | 
[V:1] (3:2:2A8z4 | 
[V:2] z8 | 
[V:3] z8 | 
[V:4] (3:2:2A4z8 | 
[V:5] [M:2/1]c6c2 | 
[V:6] z8 | 
[V:1] z8 | 
[V:2] [M:2/1]z8 | 
[V:3] [M:2/1]g6g2 | 
[V:4] z8 | 
[V:5] d6e2- | 
[V:6] [M:2/1]G,6G,2 | 
[V:1] z8 | 
[V:2] z8 | 
[V:3] c3de2f2 | 
[V:4] z8 | 
[V:5] e2c4BA | 
[V:6] A,6F,2 | 
[V:1] z8 | 
[V:2] z8 | 
[V:3] e2d4^c2 | 
[V:4] z8 | 
[V:5] B4G4 | 
[V:6] G,4E,4 | 
[V:1] [M:2/1]d6d2 | 
[V:2] z8 | 
[V:3] d8 | 
[V:4] [M:2/1]d6d2 | 
[V:5] A4F4 | 
[V:6] D,8 | 
[V:1] G3AB2c2 | 
[V:2] z8 | 
[V:3] z8 | 
[V:4] e6c2 | 
[V:5] E3FG2A2 | 
[V:6] z8 | 
[V:1] B2A4G2 | 
[V:2] z8 | 
[V:3] z8 | 
[V:4] d4B4 | 
[V:5] G2F2G4 | 
[V:6] z8 | 
[V:1] A8 | 
[V:2] z8 | 
[V:3] d4e2d2- | 
[V:4] A8 | 
[V:5] F4z2A2- | 
[V:6] D,4C,2F,2- | 
[V:1] z8 | 
[V:2] z8 | 
[V:3] d2c2B2A2 | 
[V:4] z8 | 
[V:5] A2G2F2E2 | 
[V:6] F,2E,2D,2C,2 | 
[V:1] z8 | 
[V:2] d8 | 
[V:3] B8 | 
[V:4] z8 | 
[V:5] F2F2D4- | 
[V:6] B,,8 | 
[V:1] A4B2A2- | 
[V:2] d4d2_e2- | 
[V:3] z8 | 
[V:4] A4G2c2- | 
[V:5] D4z4 | 
[V:6] z8 | 
[V:1] A2G2F2E2 | 
[V:2] e2d2c2B2 | 
[V:3] z8 | 
[V:4] c2B2A2G2 | 
[V:5] z8 | 
[V:6] z8 | 
[V:1] F8 | 
[V:2] c4f4- | 
[V:3] A4c4 | 
[V:4] F8 | 
[V:5] z4A4- | 
[V:6] F,6F,2 | 
[V:1] z8 | 
[V:2] f2f2f2d2 | 
[V:3] d6d2 | 
[V:4] z8 | 
[V:5] A2A2A2B2 | 
[V:6] D,6B,,2 | 
[V:1] z8 | 
[V:2] e2g4^f2 | 
[V:3] cBAGA2A2 | 
[V:4] z8 | 
[V:5] G4d4 | 
[V:6] C,2E,2D,4 | 
[V:1] E4G4 | 
[V:2] g8 | 
[V:3] G2g4g2 | 
[V:4] c6c2 | 
[V:5] G8 | 
[V:6] E,2C,3D,E,2 | 
[V:1] A6A2 | 
[V:2] z8 | 
[V:3] c3de2f2 | 
[V:4] A6F2 | 
[V:5] z8 | 
[V:6] F,2E,D,C,2D,2 | 
[V:1] GFEDE2E2 | 
[V:2] z8 | 
[V:3] e2d4c2 | 
[V:4] G2B2A4 | 
[V:5] z8 | 
[V:6] C,2B,,2C,4 | 
[V:1] D2d4d2 | 
[V:2] z8 | 
[V:3] d8 | 
[V:4] B2G3AB2 | 
[V:5] d8 | 
[V:6] G,,4z4 | 
[V:1] G3AB2c2 | 
[V:2] z8 | 
[V:3] z8 | 
[V:4] c2BAG2A2 | 
[V:5] _e6c2 | 
[V:6] z8 | 
[V:1] B2A4G2 | 
[V:2] z8 | 
[V:3] z8 | 
[V:4] G2F2G4 | 
[V:5] d2A2B4 | 
[V:6] z8 | 
[V:1] A8 | 
[V:2] z8 | 
[V:3] d4e2d2- | 
[V:4] D4z4 | 
[V:5] A4z2A2- | 
[V:6] D,4C,2F,2- | 
[V:1] z8 | 
[V:2] z8 | 
[V:3] d2c2B2A2 | 
[V:4] z8 | 
[V:5] A2G2F2E2 | 
[V:6] F,2E,2D,2C,2 | 
[V:1] z8 | 
[V:2] d8 | 
[V:3] B8 | 
[V:4] z8 | 
[V:5] F2F2D4- | 
[V:6] B,,8 | 
[V:1] A4B2A2- | 
[V:2] d4d2_e2- | 
[V:3] z8 | 
[V:4] A4G2c2- | 
[V:5] D4z4 | 
[V:6] z8 | 
[V:1] A2G2F2E2 | 
[V:2] e2d2c2B2 | 
[V:3] z8 | 
[V:4] c2B2A2G2 | 
[V:5] z8 | 
[V:6] z8 | 
[V:1] F8 | 
[V:2] c4f4- | 
[V:3] A4c4 | 
[V:4] F8 | 
[V:5] z4A4- | 
[V:6] z8 | 
[V:1] z8 | 
[V:2] f2f2f2d2 | 
[V:3] d6d2 | 
[V:4] z8 | 
[V:5] A2A2A2B2 | 
[V:6] D,6B,,2 | 
[V:1] z8 | 
[V:2] e2g4f2 | 
[V:3] cBAGA4 | 
[V:4] z8 | 
[V:5] G4d4 | 
[V:6] C,2E,2D,4 | 
[V:1] E4G4 | 
[V:2] g4e4 | 
[V:3] G2c4B2 | 
[V:4] z8 | 
[V:5] B2c2G4 | 
[V:6] E,2C,2G,4 | 
[V:1] A6A2 | 
[V:2] f6e2 | 
[V:3] c6BA | 
[V:4] A6F2 | 
[V:5] c4z4 | 
[V:6] F,8 | 
[V:1] GFEDE4 | 
[V:2] d4c4 | 
[V:3] B4c4 | 
[V:4] G2B2A4 | 
[V:5] z8 | 
[V:6] z8 | 
[V:1] D2G4F2 | 
[V:2] z4d4 | 
[V:3] d2cBA4 | 
[V:4] B2G2d4 | 
[V:5] G4D2F2 | 
[V:6] z4D,4 | 
[V:1] G6FE | 
[V:2] e4c4 | 
[V:3] G8 | 
[V:4] c8 | 
[V:5] E4G4 | 
[V:6] G,4E,4 | 
[V:1] F8- | 
[V:2] d8- | 
[V:3] A8- | 
[V:4] z8 | 
[V:5] F8- | 
[V:6] D,8- | 
[V:1] F8 | 
[V:2] d8 | 
[V:3] A8 | 
[V:4] z4A4 | 
[V:5] F8 | 
[V:6] D,8 | 
[V:1] G8- | 
[V:2] d4d4- | 
[V:3] G8- | 
[V:4] d8 | 
[V:5] D8- | 
[V:6] G,,8- | 
[V:1] G8 |]  
[V:2] d8 |]  
[V:3] G8 |]  
[V:4] B8 |]  
[V:5] D8 |]  
[V:6] G,,8 |]  



